public/new/vector2.svg

<svg fill="none" height="41" viewBox="0 0 41 41" width="41" xmlns="http://www.w3.org/2000/svg"><path d="m28.7057.916504h-16.4108c-7.12833 0-11.377908 4.249586-11.377908 11.377896v16.3913c0 7.1479 4.249578 11.3975 11.377908 11.3975h16.3913c7.1283 0 11.3779-4.2496 11.3779-11.3779v-16.4109c.0196-7.12831-4.23-11.377896-11.3584-11.377896z" fill="#fff"/></svg>

<svg width="41" height="41" viewBox="0 0 41 41" fill="none" xmlns="http://www.w3.org/2000/svg">
<path d="M28.7057 0.916504H12.2949C5.16657 0.916504 0.916992 5.16609 0.916992 12.2944V28.6857C0.916992 35.8336 5.16657 40.0832 12.2949 40.0832H28.6862C35.8145 40.0832 40.0641 35.8336 40.0641 28.7053V12.2944C40.0837 5.16609 35.8341 0.916504 28.7057 0.916504Z" fill="white"/>
</svg>
